X:1
T:Queen Jane
M:4/4
L:1/8
K:F
 D2|
M:5/4
 G4 B2 A2 G2|
M:6/4
 F2 F2 G2 D4B-c|
M:4/4
 dd d2 c2 d2| B6B-c| d3 d c2D-D| BB A2 G2 D2| G3 GF-G A2| B6B-A| G3 GC-D F2|\
 G6||
